!!!ONR: No. 19
!! From Harold Courlander, "Haiti Singing"
!! Chapel Hill: University of North Carolina Press, 1939
!! Copyright University of North Carolina Press
!!!ENC: D. Huron
**kern
*clefG2
*k[f#]
*M2/4
=1-
8r
8d
8f#
8a
=2
[2a
=3
8a]
8f#
8f#
8f#
=4
[2e
=5
8e]
8f#
8e
8f#
=6
4d
8e
[8f#
=7
8f#]
8e
4f#
=8
[2d
=9
8d]
8a
8b
8a
=10
8b
8a
8b
8a
=11
8b
8a
8f#
8f#
=12
(4e
[4b
=13
8b])
8a
8f#
8f#
=14
4d
8e
[8f#
=15
8f#]
8e
4f#
=16
[2d
=17
8d]
8d
8f#
8a
=18
[2a
=19
8a]
8f#
8f#
8f#
=20
[2e
=21
8e]
8f#
8e
8f#
=22
4d
8e
[8f#
=23
8f#]
8e
4f#
=24
[2d
=25
8d]
8r
4r
==
*-
